X: 10261
Q: "Lively"
M: 6/8
L: 1/8
K: C
|:\
|:\
c2e f2a | g2a ged | c2e f2a | gec d3 |\
c2e f2a | g2a gec | cBA GAB | c3- c3 :|


